coreui/free/cil-camera.svg

<svg xmlns="http://www.w3.org/2000/svg" viewBox="0 0 512 512">
  <path fill="var(--ci-primary-color, currentColor)" d="M471.993,112h-89.2L366.551,65.25a32.023,32.023,0,0,0-30.229-21.5H175.241a31.991,31.991,0,0,0-30.294,21.691L129.1,112h-89.1a24.027,24.027,0,0,0-24,24V448a24.027,24.027,0,0,0,24,24H471.993a24.027,24.027,0,0,0,24-24V136A24.027,24.027,0,0,0,471.993,112Zm-8,328H48.007V144h104.01l23.224-68.25H336.322L360.032,144H463.993Z" class="ci-primary"/>
  <path fill="var(--ci-primary-color, currentColor)" d="M256,168A114,114,0,1,0,370,282,114.13,114.13,0,0,0,256,168Zm0,196a82,82,0,1,1,82-82A82.093,82.093,0,0,1,256,364Z" class="ci-primary"/>
</svg>

<svg viewBox="0 0 512 512" xmlns="http://www.w3.org/2000/svg"><g><path d="M471.99 112h-89.2l-16.25-46.75 0-.001c-4.48-12.87-16.61-21.5-30.23-21.5H175.22v0c-13.71-.01-25.89 8.71-30.3 21.69l-15.85 46.559h-89.1v-.001c-13.25.01-23.99 10.75-24 24v312 0c.01 13.24 10.75 23.98 24 24h431.99v0c13.24-.02 23.98-10.76 24-24v-312 0c-.02-13.25-10.76-23.99-24-24Zm-8 328H48V144h104.01l23.22-68.25h161.08L360.02 144h103.96Z"/><path d="M256 168v0c-62.97 0-114 51.03-114 114 0 62.96 51.03 114 114 114 62.96 0 114-51.04 114-114v-.001c-.08-62.94-51.07-113.93-114-114Zm0 196v0c-45.29 0-82-36.72-82-82 0-45.29 36.71-82 82-82 45.28 0 82 36.71 82 82v0c-.06 45.26-36.74 81.94-82 82Z"/></g></svg>
